; generated by PrusaSlicer 2.6.1+win64 on 2023-12-25 at 12:07:13 UTC


;
;
; 

; external perimeters extrusion width = 0.60mm
; perimeters extrusion width = 0.50mm
; infill extrusion width = 0.50mm
; solid infill extrusion width = 0.50mm
; top infill extrusion width = 0.45mm
; support material extrusion width = 0.38mm
; first layer extrusion width = 0.42mm

; external perimeters extrusion width = 0.60mm
; perimeters extrusion width = 0.50mm
; infill extrusion width = 0.50mm
; solid infill extrusion width = 0.50mm
; top infill extrusion width = 0.45mm
; support material extrusion width = 0.38mm
; first layer extrusion width = 0.42mm

M73 P0 R257
M73 Q0 S259
M201 X1000 Y1000 Z200 E5000 ; sets maximum accelerations, mm/sec^2
M203 X200 Y200 Z12 E120 ; sets maximum feedrates, mm / sec
M204 S1250 T1250 ; sets acceleration (S) and retract acceleration (R), mm/sec^2
M205 X8.00 Y8.00 Z0.40 E4.50 ; sets the jerk limits, mm/sec
M205 S0 T0 ; sets the minimum extruding and travel feed rate, mm/sec
;TYPE:Custom
M862.3 P "MK3S" ; printer model check
M862.1 P0.4 ; nozzle diameter check
M115 U3.13.1 ; tell printer latest fw version
G90 ; use absolute coordinates
M83 ; extruder relative mode
M104 S215 ; set extruder temp
M140 S60 ; set bed temp
M190 S60 ; wait for bed temp
M109 S215 ; wait for extruder temp
G28 W ; home all without mesh bed level
G80 ; mesh bed leveling

G1 Z0.2 F720
G1 Y-3 F1000 ; go outside print area
G92 E0
G1 X60 E9 F1000 ; intro line
G1 X100 E12.5 F1000 ; intro line

G92 E0
M221 S95

; Don't change E values below. Excessive value can damage the printer.

M907 E538 ; set extruder motor current
G21 ; set units to millimeters
G90 ; use absolute coordinates
M83 ; use relative distances for extrusion
M900 K0.05 ; Filament gcode LA 1.5
M900 K30 ; Filament gcode LA 1.0

M107
;LAYER_CHANGE
;Z:0.2
;HEIGHT:0.2
;BEFORE_LAYER_CHANGE
G92 E0.0
;0.2


G1 E-.8 F2100
G1 Z.4 F720
;AFTER_LAYER_CHANGE
;0.2
G1 X64.324 Y29.041 F10800
G1 Z.2 F720
G1 E.8 F2100
M204 S800
;TYPE:Skirt/Brim
;WIDTH:0.42
G1 F1200
G1 X65.087 Y27.445 E.05547
G1 X65.949 Y26.329 E.04421
G1 X66.679 Y25.644 E.03139
G1 X68.246 Y24.649 E.0582
G1 X69.178 Y24.281 E.03142
G1 X70.554 Y23.975 E.0442
G1 X123.706 Y18.007 E1.67702
G1 X125.093 Y17.932 E.04355
G1 X126.299 Y18.008 E.03789
G1 X179.774 Y24.033 E1.68728
G1 X181.326 Y24.461 E.05048
G1 X182.604 Y25.121 E.0451
G1 X183.412 Y25.72 E.03154
G1 X184.657 Y27.068 E.05753
G1 X185.181 Y27.904 E.03094
G1 X185.724 Y29.175 E.04334
G1 X185.988 Y30.335 E.0373
G1 X186.077 Y31.266 E.02932
G1 X186.073 Y176.767 E4.56208
G1 X185.577 Y185.379 E.27047
G1 X185.465 Y185.977 E.01908
G1 X184.965 Y187.515 E.05071
G1 X184.627 Y188.177 E.02331
G1 X183.324 Y189.972 E.06955
G1 X182.48 Y190.693 E.0348
G1 X180.297 Y191.806 E.07683
G1 X179.217 Y192.065 E.03482
G1 X71.724 Y192.065 E3.37037
G1 X70.196 Y191.823 E.04851
G1 X68.066 Y191.131 E.07022
G1 X66.878 Y190.267 E.04606
G1 X64.931 Y187.586 E.10389
G1 X64.481 Y186.328 E.04189
G1 X63.923 Y176.71 E.30207
G1 X63.923 Y31.37 E4.55703
G1 X64.021 Y30.225 E.03603
G1 X64.31 Y29.099 E.03645
M204 S1000
;WIPE_START
G1 F8640
G1 X65.087 Y27.445 E-.42196
G1 X65.949 Y26.329 E-.32561
G1 X66.115 Y26.174 E-.05243
;WIPE_END
G1 Z.6 F720
G1 X71.179 Y109.586 F10800
G1 Z.2 F720
G1 E.8 F2100
M204 S800
G1 F1200
G1 X116.934 Y109.586 E1.43462
G1 X117.348 Y108.504 E.03632
M73 P0 R256
G1 X117.785 Y107.674 E.02941
G1 X118.29 Y106.925 E.02832
G1 X118.865 Y106.242 E.02799
G1 X119.603 Y105.546 E.03181
G1 X120.486 Y104.899 E.03432
G1 X121.267 Y104.46 E.02809
G1 X122.052 Y104.12 E.02682
G1 X122.936 Y103.844 E.02904
G1 X123.876 Y103.662 E.03002
G1 X125.183 Y103.587 E.04105
G1 X125.915 Y103.637 E.023
G1 X126.638 Y103.747 E.02293
G1 X127.687 Y104.027 E.03404
G1 X128.616 Y104.403 E.03142
G1 X129.504 Y104.893 E.0318
G1 X130.38 Y105.531 E.03398
G1 X131.167 Y106.277 E.034
G1 X131.725 Y106.944 E.02727
G1 X132.206 Y107.659 E.02702
G1 X132.658 Y108.518 E.03043
G1 X133.062 Y109.586 E.0358
G1 X178.821 Y109.586 E1.43474
G1 X180.917 Y110.209 E.06856
G1 X181.781 Y110.843 E.0336
G1 X182.526 Y111.677 E.03506
G1 X183.133 Y112.879 E.04222
G1 X183.413 Y114.247 E.04378
G1 X183.413 Y176.788 E1.96093
G1 X183.072 Y178.282 E.04805
M73 Q0 S258
G1 X182.915 Y178.611 E.01143
G1 X182.907 Y184.872 E.19631
G1 X182.214 Y186.971 E.06931
G1 X181.501 Y187.887 E.0364
G1 X180.63 Y188.621 E.03571
G1 X179.617 Y189.124 E.03546
G1 X178.534 Y189.375 E.03486
G1 X173.784 Y189.397 E.14893
G1 X172.003 Y188.941 E.05764
G1 X170.617 Y188.011 E.05233
G1 X169.653 Y186.712 E.05072
G1 X169.164 Y185.085 E.05327
G1 X169.147 Y181.412 E.11517
G1 X80.902 Y181.412 E2.76686
G1 X80.849 Y185.237 E.11994
G1 X80.369 Y186.683 E.04777
G1 X79.677 Y187.691 E.03834
G1 X78.818 Y188.49 E.03678
G1 X77.671 Y189.103 E.04078
G1 X76.306 Y189.402 E.04381
G1 X71.738 Y189.392 E.14323
G1 X70.324 Y189.061 E.04553
G1 X69.255 Y188.529 E.03744
G1 X68.501 Y187.898 E.03083
G1 X67.869 Y187.11 E.03167
G1 X67.232 Y185.489 E.05461
G1 X67.144 Y178.722 E.21219
G1 X66.949 Y178.339 E.01348
G1 X66.587 Y176.793 E.04978
G1 X66.587 Y114.248 E1.96105
G1 X66.847 Y112.938 E.04188
G1 X67.403 Y111.781 E.04025
G1 X68.147 Y110.909 E.03594
G1 X69.08 Y110.211 E.03653
G1 X71.121 Y109.603 E.06677
M204 S1000
G1 X71.206 Y109.963 F10800
M204 S800
G1 F1200
G1 X117.24 Y109.963 E1.44336
G1 X117.36 Y109.51 E.01469
G1 X117.686 Y108.671 E.02822
G1 X118.114 Y107.859 E.02878
G1 X118.585 Y107.16 E.02643
G1 X119.132 Y106.508 E.02668
G1 X119.853 Y105.828 E.03107
G1 X120.699 Y105.211 E.03283
G1 X121.443 Y104.794 E.02674
G1 X122.192 Y104.471 E.02557
G1 X123.038 Y104.207 E.02779
G1 X123.911 Y104.037 E.02789
G1 X125.17 Y103.964 E.03954
G1 X125.866 Y104.011 E.02187
G1 X126.571 Y104.118 E.02236
G1 X127.557 Y104.381 E.032
G1 X128.444 Y104.738 E.02998
G1 X129.311 Y105.217 E.03106
G1 X130.147 Y105.828 E.03247
G1 X130.885 Y106.527 E.03187
G1 X131.417 Y107.163 E.026
G1 X131.887 Y107.861 E.02638
G1 X132.312 Y108.667 E.02857
G1 X132.623 Y109.458 E.02665
G1 X132.759 Y109.963 E.0164
G1 X178.794 Y109.963 E1.4434
G1 X180.722 Y110.533 E.06304
G1 X181.515 Y111.11 E.03075
G1 X182.203 Y111.872 E.03219
G1 X182.769 Y112.981 E.03904
G1 X183.036 Y114.267 E.04118
G1 X183.036 Y176.766 E1.95961
G1 X182.71 Y178.174 E.04531
G1 X182.538 Y178.521 E.01214
G1 X182.53 Y184.842 E.19819
G1 X181.896 Y186.766 E.06352
G1 X181.242 Y187.612 E.03353
G1 X180.405 Y188.317 E.03431
G1 X179.472 Y188.775 E.03259
G1 X178.471 Y189.003 E.03219
G1 X173.807 Y189.02 E.14624
G1 X172.129 Y188.584 E.05436
G1 X170.899 Y187.759 E.04644
G1 X170.003 Y186.57 E.04668
G1 X169.541 Y185.056 E.04963
G1 X169.522 Y181.035 E.12608
G1 X80.529 Y181.035 E2.79031
G1 X80.482 Y185.148 E.12897
G1 X80.042 Y186.494 E.0444
G1 X79.403 Y187.431 E.03556
G1 X78.617 Y188.171 E.03385
G1 X77.563 Y188.741 E.03757
G1 X76.285 Y189.025 E.04105
G1 X71.803 Y189.02 E.14053
G1 X70.431 Y188.699 E.04418
G1 X69.48 Y188.226 E.0333
G1 X68.758 Y187.622 E.02951
G1 X68.182 Y186.898 E.02901
G1 X67.596 Y185.385 E.05087
G1 X67.52 Y178.625 E.21197
G1 X67.31 Y178.227 E.01411
G1 X66.964 Y176.77 E.04695
G1 X66.964 Y114.267 E1.95974
G1 X67.211 Y113.037 E.03934
G1 X67.731 Y111.969 E.03724
G1 X68.419 Y111.172 E.03301
G1 X69.278 Y110.533 E.03357
G1 X71.148 Y109.98 E.06114
M204 S1000
G1 X71.232 Y110.34 F10800
M204 S800
G1 F1200
G1 X117.531 Y110.34 E1.45167
G1 X117.715 Y109.636 E.02281
G1 X118.034 Y108.818 E.02753
G1 X118.433 Y108.061 E.02683
G1 X118.892 Y107.379 E.02578
G1 X119.414 Y106.76 E.02539
G1 X120.085 Y106.125 E.02897
G1 X120.894 Y105.534 E.03141
G1 X121.602 Y105.136 E.02547
G1 X122.314 Y104.828 E.02432
G1 X123.14 Y104.57 E.02713
G1 X123.97 Y104.41 E.0265
G1 X125.157 Y104.341 E.03728
G1 X125.832 Y104.386 E.02121
G1 X126.504 Y104.49 E.02132
G1 X127.427 Y104.735 E.02994
G1 X128.272 Y105.074 E.02855
G1 X129.118 Y105.541 E.0303
G1 X129.915 Y106.125 E.03098
G1 X130.603 Y106.778 E.02974
G1 X131.122 Y107.397 E.02533
G1 X131.568 Y108.063 E.02513
G1 X131.965 Y108.815 E.02666
G1 X132.268 Y109.586 E.02597
G1 X132.468 Y110.34 E.02446
G1 X178.767 Y110.34 E1.45167
G1 X180.526 Y110.857 E.05749
G1 X181.276 Y111.403 E.02909
G1 X181.905 Y112.104 E.02953
G1 X182.421 Y113.128 E.03595
G1 X182.659 Y114.285 E.03704
G1 X182.659 Y176.744 E1.95836
G1 X182.348 Y178.064 E.04252
G1 X182.161 Y178.429 E.01286
G1 X182.153 Y184.811 E.2001
G1 X181.577 Y186.562 E.0578
G1 X180.982 Y187.338 E.03066
G1 X180.216 Y187.99 E.03154
G1 X179.366 Y188.413 E.02977
G1 X178.408 Y188.631 E.03081
G1 X173.831 Y188.643 E.14351
G1 X172.257 Y188.228 E.05104
G1 X171.137 Y187.465 E.04249
G1 X170.354 Y186.426 E.04079
G1 X169.918 Y185.025 E.04601
G1 X169.897 Y180.658 E.13693
G1 X80.155 Y180.658 E2.8138
G1 X80.114 Y185.06 E.13803
G1 X79.714 Y186.306 E.04103
G1 X79.128 Y187.173 E.03281
G1 X78.413 Y187.853 E.03094
G1 X77.453 Y188.379 E.03432
G1 X76.264 Y188.648 E.03822
G1 X71.867 Y188.648 E.13786
G1 X70.539 Y188.337 E.04277
G1 X69.67 Y187.9 E.0305
G1 X69.017 Y187.347 E.02683
G1 X68.496 Y186.688 E.02634
G1 X67.96 Y185.283 E.04715
G1 X67.896 Y178.526 E.21187
G1 X67.67 Y178.112 E.01479
G1 X67.341 Y176.748 E.04399
G1 X67.341 Y114.286 E1.95845
G1 X67.562 Y113.178 E.03542
G1 X68.033 Y112.196 E.03415
G1 X68.69 Y111.434 E.03155
G1 X69.474 Y110.857 E.03052
G1 X71.175 Y110.357 E.05559
M204 S1000
G1 X71.259 Y110.718 F10800
M204 S800
G1 F1200
M73 P0 R255
G1 X117.824 Y110.718 E1.46001
G1 X118.071 Y109.763 E.03093
G1 X118.381 Y108.965 E.02684
G1 X118.751 Y108.263 E.02488
G1 X119.187 Y107.614 E.02451
G1 X119.695 Y107.011 E.02472
G1 X120.318 Y106.422 E.02688
G1 X121.088 Y105.857 E.02994
G1 X121.778 Y105.47 E.0248
G1 X122.436 Y105.184 E.0225
G1 X123.222 Y104.938 E.02582
G1 X124.029 Y104.782 E.02577
G1 X125.143 Y104.718 E.03499
G1 X125.799 Y104.762 E.02061
G1 X126.436 Y104.861 E.02021
G1 X127.298 Y105.089 E.02796
G1 X128.1 Y105.41 E.02709
G1 X128.925 Y105.866 E.02956
G1 X129.682 Y106.422 E.02945
G1 X130.321 Y107.028 E.02761
G1 X130.826 Y107.631 E.02466
G1 X131.25 Y108.264 E.02389
G1 X131.618 Y108.963 E.02477
G1 X131.913 Y109.713 E.02527
G1 X132.177 Y110.718 E.03258
G1 X178.741 Y110.718 E1.45998
G1 X180.332 Y111.182 E.05196
G1 X181.011 Y111.672 E.02625
G1 X181.581 Y112.299 E.02657
G1 X182.058 Y113.23 E.0328
G1 X182.282 Y114.305 E.03443
G1 X182.282 Y176.721 E1.95701
G1 X181.988 Y177.951 E.03965
M73 Q0 S257
G1 X181.784 Y178.333 E.01358
G1 X181.776 Y184.781 E.20217
G1 X181.259 Y186.358 E.05204
G1 X180.696 Y187.092 E.029
G1 X179.991 Y187.686 E.0289
G1 X179.221 Y188.064 E.0269
G1 X178.347 Y188.258 E.02807
G1 X173.855 Y188.265 E.14084
G1 X172.44 Y187.897 E.04584
G1 X171.416 Y187.21 E.03866
G1 X170.703 Y186.28 E.03674
G1 X170.295 Y184.994 E.0423
G1 X170.272 Y180.28 E.14781
G1 X79.78 Y180.28 E2.83731
G1 X79.746 Y184.975 E.14721
G1 X79.386 Y186.118 E.03757
G1 X78.827 Y186.945 E.0313
G1 X78.208 Y187.535 E.02681
G1 X77.341 Y188.018 E.03112
G1 X76.242 Y188.271 E.03536
G1 X71.89 Y188.271 E.13645
G1 X70.648 Y187.976 E.04003
G1 X69.895 Y187.596 E.02645
G1 X69.3 Y187.097 E.02435
G1 X68.811 Y186.477 E.02476
G1 X68.325 Y185.182 E.04337
G1 X68.273 Y178.423 E.21193
G1 X68.03 Y177.995 E.01543
G1 X67.718 Y176.725 E.041
G1 X67.718 Y114.305 E1.95714
G1 X67.926 Y113.277 E.03289
G1 X68.361 Y112.384 E.03114
G1 X68.96 Y111.699 E.02853
G1 X69.67 Y111.181 E.02756
G1 X71.201 Y110.734 E.05001
M204 S1000
G1 X71.285 Y111.095 F10800
M204 S800
G1 F1200
G1 X118.171 Y111.095 E1.47008
G1 X118.223 Y110.678 E.01318
G1 X118.426 Y109.889 E.02554
G1 X118.729 Y109.112 E.02615
G1 X119.08 Y108.448 E.02355
G1 X119.482 Y107.849 E.02262
G1 X119.977 Y107.262 E.02408
G1 X120.551 Y106.719 E.02477
G1 X121.283 Y106.18 E.0285
G1 X121.954 Y105.803 E.02413
G1 X122.559 Y105.541 E.02067
G1 X123.304 Y105.306 E.02449
G1 X124.088 Y105.155 E.02503
G1 X125.13 Y105.095 E.03273
G1 X125.75 Y105.136 E.01948
G1 X126.369 Y105.232 E.01964
G1 X127.169 Y105.444 E.02595
G1 X127.928 Y105.746 E.02561
G1 X128.732 Y106.19 E.0288
G1 X129.431 Y106.704 E.0272
G1 X130.039 Y107.278 E.02622
G1 X130.53 Y107.866 E.02402
G1 X130.921 Y108.449 E.02201
G1 X131.279 Y109.129 E.0241
G1 X131.558 Y109.84 E.02395
G1 X131.776 Y110.675 E.02706
G1 X131.829 Y111.095 E.01327
G1 X178.714 Y111.095 E1.47005
G1 X180.138 Y111.507 E.04648
G1 X180.774 Y111.966 E.02459
G1 X181.283 Y112.532 E.02387
G1 X181.71 Y113.377 E.02968
G1 X181.905 Y114.324 E.03032
G1 X181.905 Y176.698 E1.95569
G1 X181.628 Y177.835 E.03669
G1 X181.407 Y178.233 E.01427
G1 X181.399 Y184.751 E.20437
G1 X180.94 Y186.155 E.04631
G1 X180.435 Y186.819 E.02616
G1 X179.803 Y187.359 E.02606
G1 X179.076 Y187.715 E.02538
G1 X178.287 Y187.885 E.02531
G1 X173.878 Y187.888 E.13824
G1 X172.62 Y187.565 E.04072
G1 X171.696 Y186.955 E.03472
G1 X171.023 Y186.078 E.03466
G1 X170.664 Y184.911 E.03828
G1 X170.649 Y179.903 E.15702
G1 X79.405 Y179.903 E2.86089
G1 X79.377 Y184.891 E.1564
G1 X79.057 Y185.93 E.03409
G1 X78.526 Y186.717 E.02977
G1 X78.001 Y187.219 E.02278
G1 X77.228 Y187.657 E.02786
G1 X76.22 Y187.894 E.03247
G1 X71.912 Y187.894 E.13507
G1 X70.759 Y187.615 E.03719
G1 X70.087 Y187.271 E.02367
G1 X69.56 Y186.823 E.02169
G1 X69.126 Y186.269 E.02207
G1 X68.69 Y185.083 E.03962
G1 X68.649 Y178.318 E.21212
G1 X68.388 Y177.876 E.01609
G1 X68.095 Y176.701 E.03797
G1 X68.095 Y114.324 E1.95579
G1 X68.29 Y113.378 E.03028
G1 X68.687 Y112.575 E.02809
G1 X69.227 Y111.965 E.02554
G1 X69.863 Y111.506 E.02459
G1 X71.228 Y111.111 E.04455
M204 S1000
G1 X71.312 Y111.472 F10800
M204 S800
G1 F1200
G1 X118.507 Y111.472 E1.47977
G1 X118.592 Y110.759 E.02251
G1 X118.782 Y110.015 E.02408
G1 X119.076 Y109.259 E.02543
G1 X119.408 Y108.634 E.02219
G1 X119.777 Y108.084 E.02077
G1 X120.258 Y107.513 E.02341
G1 X120.801 Y107.001 E.0234
G1 X121.478 Y106.503 E.02635
G1 X122.13 Y106.137 E.02344
G1 X122.682 Y105.898 E.01886
G1 X123.407 Y105.669 E.02384
G1 X124.147 Y105.528 E.02362
G1 X125.117 Y105.472 E.03046
G1 X125.717 Y105.512 E.01885
G1 X126.301 Y105.603 E.01853
G1 X127.041 Y105.799 E.024
G1 X127.756 Y106.082 E.02411
G1 X128.539 Y106.514 E.02804
G1 X129.181 Y106.986 E.02498
G1 X129.757 Y107.529 E.02482
G1 X130.235 Y108.1 E.02335
G1 X130.592 Y108.634 E.02014
G1 X130.932 Y109.277 E.02281
G1 X131.203 Y109.967 E.02324
G1 X131.408 Y110.756 E.02556
G1 X131.493 Y111.472 E.02261
G1 X178.688 Y111.472 E1.47977
G1 X179.946 Y111.832 E.04103
G1 X180.508 Y112.234 E.02167
G1 X180.985 Y112.765 E.02238
G1 X181.361 Y113.522 E.0265
G1 X181.528 Y114.343 E.02627
G1 X181.528 Y176.675 E1.95438
G1 X181.269 Y177.717 E.03367
G1 X181.03 Y178.13 E.01496
G1 X181.022 Y184.721 E.20666
G1 X180.619 Y185.954 E.04067
G1 X180.172 Y186.548 E.02331
G1 X179.613 Y187.032 E.02318
G1 X178.973 Y187.351 E.02242
G1 X178.227 Y187.513 E.02394
G1 X173.901 Y187.511 E.13564
G1 X172.801 Y187.232 E.03558
G1 X171.931 Y186.659 E.03266
G1 X171.345 Y185.879 E.03059
G1 X171.033 Y184.831 E.03428
G1 X171.025 Y179.526 E.16633
G1 X79.029 Y179.526 E2.88447
G1 X79.008 Y184.81 E.16568
G1 X78.728 Y185.744 E.03057
G1 X78.225 Y186.489 E.02818
G1 X77.759 Y186.93 E.02012
G1 X77.114 Y187.297 E.02327
G1 X76.197 Y187.516 E.02956
G1 X71.936 Y187.516 E.1336
G1 X70.871 Y187.254 E.03439
G1 X70.315 Y186.97 E.01958
G1 X69.819 Y186.549 E.0204
G1 X69.443 Y186.063 E.01927
G1 X69.056 Y184.987 E.03585
G1 X69.026 Y178.209 E.21252
G1 X68.746 Y177.753 E.01678
G1 X68.472 Y176.677 E.03481
G1 X68.472 Y114.343 E1.95444
G1 X68.64 Y113.52 E.02634
M73 P1 R255
G1 X68.987 Y112.805 E.02492
G1 X69.495 Y112.232 E.02401
G1 X70.055 Y111.832 E.02158
G1 X71.254 Y111.488 E.03911
M204 S1000
G1 X71.338 Y111.849 F10800
M204 S800
G1 F1200
G1 X118.843 Y111.849 E1.48949
G1 X118.96 Y110.839 E.03188
M73 P1 R254
M73 Q1 S257
G1 X119.144 Y110.119 E.0233
G1 X119.414 Y109.426 E.02332
G1 X119.737 Y108.819 E.02156
G1 X120.073 Y108.319 E.01889
G1 X120.525 Y107.78 E.02206
G1 X121.051 Y107.284 E.02267
G1 X121.673 Y106.826 E.02422
G1 X122.307 Y106.47 E.0228
G1 X122.805 Y106.254 E.01702
G1 X123.489 Y106.038 E.02249
G1 X124.205 Y105.901 E.02286
G1 X125.104 Y105.849 E.02823
G1 X125.683 Y105.887 E.01819
G1 X126.233 Y105.974 E.01746
G1 X126.913 Y106.154 E.02206
G1 X127.585 Y106.418 E.02264
G1 X128.346 Y106.838 E.02725
G1 X128.931 Y107.269 E.02278
G1 X129.475 Y107.78 E.0234
G1 X129.939 Y108.334 E.02266
